X: 11
T: the Wanton Lass
%%VWML:Thompsons1765-2277d-p6-0
F:http://www.vwml.org/record/Thompsons1765/2277d/p6
B: Chas & Sam Thompson "Twenty Four Country Dances for the Year 1765", London 1765, p.6 #1 
F: http://www.vwml.org/browse/browse-collections-dance-tune-books/browse-thompsons1765#
Z: 2014 John Chambers <jc:trillian.mit.edu> (added dance description)
M: C
L: 1/16
K: G
|:\
g2G2g2g2 g2g2 g2fe | d2d2d2^d2 e2E2 E4 |\
c2e2 e2dc | B2d2 d2cB | {c}B2AG D2EF G4 [G4G,4] :|
|:\
B2d2d2d2 d2d2 d2cB | c2cd e2fg a2A2 A4 |\
gbag fagf egfe dedc | BdcB AcBA G4 [G4G,4] :|
% - - - - - - - - - - Dance description - - - - - - - - - -
%%begintext align
%% Gallop down one Cu: up again and cast off .|.
%% Gallop down another Cu: and up again and cast off
%% :|. lead up to the top and cast off .|: Right and left
%% at top :|:
%%endtext
T: the Shrewsbury Lasses
%R: march, reel
B: Chas & Sam Thompson "Twenty Four Country Dances for the Year 1765", London 1765, p.6 #2 
F: http://www.vwml.org/browse/browse-collections-dance-tune-books/browse-thompsons1765#
Z: 2014 John Chambers <jc:trillian.mit.edu> (added dance description) M: 2/4
L: 1/8
K: D
 (3(A/B/c/) |\
dA2(G | F)D2F | EGFE | FDFA |\
df2(d | c)e2A | BdB^G | A2-A :: (3(A/B/c/) | dB2G- | GE2a- |
af2d- | dB2b- |\
bg2e- | ec2(A | G)B2G | ((3FGA) FD |\
GB2G | FA df | {f}e2dc | d2d :|
% - - - - - - - - - - Dance description - - - - - - - - - -
%%begintext align
%% First Man set to the 2d Wo: and turn .|. 1st Wo: do the same 
%% with the 2d Man :|. Cast off & hands round four at bottom .|: 
%% the Wo: go round the bottom Cu: the Man round the top Cu: 
%% meet and turn in your own Places :|:
%%endtext
